icons/media-strip-2.svg

<svg fill="none" viewBox="0 0 24 24"><path stroke="currentColor" stroke-linecap="round" stroke-linejoin="round" stroke-width="2" d="M7.2 21v-18m9.6 18v-18m-14.4 9h19.2m-19.2-4.8h4.8m9.6 0h4.8m-19.2 9.6h4.8m9.6 0h4.8m-19.2 1.2v-12a3.6 3.6 0 0 1 3.6-3.6h12a3.6 3.6 0 0 1 3.6 3.6v12a3.6 3.6 0 0 1-3.6 3.6h-12a3.6 3.6 0 0 1-3.6-3.6Z"/></svg>

<svg fill="none" viewBox="0 0 24 24"><path stroke="currentColor" stroke-linecap="round" stroke-linejoin="round" stroke-width="2" d="M7.2 21V3m9.6 18V3M2.4 12h19.2M2.4 7.2h4.8m9.6 0h4.8M2.4 16.8h4.8m9.6 0h4.8M2.4 18V6A3.6 3.6 0 0 1 6 2.4h12A3.6 3.6 0 0 1 21.6 6v12a3.6 3.6 0 0 1-3.6 3.6H6A3.6 3.6 0 0 1 2.4 18"/></svg>
